X:48
T:Boys of Malin
M:4/4
L:1/8
R:reel
D:Highland Sun: Celtic Crossover
K:A
|:ABcd e2ce|fedf edcB|ABcd e2ce|1 fdBc d2cB:|2 fdBc defg|
|:aAA2 cee2|abag fefg|1 aAA2 cee2|fdBc defg:|2 a2ga faec|dcBc d2cB|
|:Aece Aece|Aece d2cB|Aece Aece|fdBc d2cB:|
